Adwaita++/actions/22/layer-raise.svg

<svg height="22" viewBox="0 0 22 22" width="22" xmlns="http://www.w3.org/2000/svg">
  <path d="m4 1-3 4h6l3-4zm0 5-3 4h4l3-4zm8 0-3 3 .65625 1.40625 1.34375-1.40625v6h2v-6l1.34375 1.40625.65625-1.40625zm-8 5-3 4h4l3-4z" fill="#444" transform="translate(3 3)"/>
</svg>

<svg xmlns="http://www.w3.org/2000/svg" width="22" height="22" viewBox="0 0 22 22">
 <defs>
  <style id="current-color-scheme" type="text/css">
   .ColorScheme-Text { color:#444444; } .ColorScheme-Highlight { color:#4285f4; }
  </style>
 </defs>
 <path style="fill:currentColor" class="ColorScheme-Text" d="M 4 1 L 1 5 L 7 5 L 10 1 L 4 1 z M 4 6 L 1 10 L 5 10 L 8 6 L 4 6 z M 12 6 L 9 9 L 9.65625 10.40625 L 11 9 L 11 15 L 13 15 L 13 9 L 14.34375 10.40625 L 15 9 L 12 6 z M 4 11 L 1 15 L 5 15 L 8 11 L 4 11 z" transform="translate(3 3)"/>
</svg>
